!!!!SEGMENT: pl-wn--mus-iii-75-728-cim--002_sowinski-wojciech--narodowa-nuta.krn
!!!cenid: 18xx:3591
!!!COM: Sowiński, Wojciech
!!!COM-rismID: pe30008543
!!!CDT: ~1803-1880/03/05
!!!CNT:
!!!OTL: Narodowa nuta
!!!PDT: 1833
!!!AGN:
!!!SMS-siglum: PL-Wn
!!!SMS-shelfmark: Mus.III.75.728 Cim.
!!!SMS-shelfwork: 002 W
!!!SMS-variant:
!!!SMS-altvar:
!!!NIFC-rismSourceID:
!!!NIFC-rismChildID:
!!!NIFC-islandoraID: none
!!!URL-pdf-islandora:
!!!URL-scan: https://polona.pl/item/album-lyrique-contenant-dix-romances-chansonnettes-et-mazureck-a-une-ou-plusieurs-voix,NzE0MjM5Nzc/9 @EN{Scan on Polona} @PL{Skany w portalu Polona}
!!!ONB-nifc: UWAGA: kolejne zwrotki wpisane w źródle tylko dla głosu wokalnego przetranskrybować wraz ze skopiowaną partią fortepianu (do ukrycia w humdrumie)
!!!AIN: 1 piano 1 soprn
!!!key: G
**kern	**kern	**dynam	**kern	**text
*part2	*part2	*part2	*part1	*part1
*staff3	*staff2	*	*staff1	*staff1
*Ipiano	*Iempty	*	*Isoprn	*
*I"Piano	*	*	*I"Soprano	*
*I'pf	*	*	*I'S	*
*ICklav	*	*	*ICvox	*
*clefF4	*clefG2	*	*clefG2	*
*k[f#]	*k[f#]	*	*k[f#]	*
*G:	*G:	*	*G:	*
*M3/8	*M3/8	*	*M3/8	*
=1	=1	=1	=1	=1
*^	*	*	*	*
*xywh-#11:379,577,2362,679	*xywh-#11:379,577,2362,679	*xywh-#11:379,577,2362,679	*xywh-#11:379,577,2362,679	*xywh-#11:379,577,2362,679	*
!	!	!LO:TX:a:t=Mazurek.	!	!	!
!	!	!	!LO:DY:rj	!	!
8DD/	8ryy	16.a/LL	sf	4.ryy	.
.	.	32a/JJk	.	.	.
8D/L	4D\	8b/L	.	.	.
8c/J 8F#/	.	8a/J	.	.	.
=2	=2	=2	=2	=2	=2
8A/L	4D\	8f#/	.	4.ryy	.
8c/	.	4d/	.	.	.
8F#/J	8ryy	.	.	.	.
*v	*v	*	*	*	*
=3	=3	=3	=3	=3
8GG/	16g\LL	.	4.ryy	.
.	16a\JJ	.	.	.
8d\L 8B\	8b\L	.	.	.
8G\J	8cc\J	.	.	.
=4	=4	=4	=4	=4
*	*^	*	*	*
*xywh-#11:379,577,2362,679	*xywh-#11:379,577,2362,679	*xywh-#11:379,577,2362,679	*	*xywh-#11:379,577,2362,679	*
8GG/	8ryy	8dd'\	.	4.r	.
!	!LO:TX:b:t=ten.	!	!	!	!
4c 4G 4C\	4ee/	4g 4e\	.	.	.
*	*v	*v	*	*	*
=5	=5	=5	=5	=5
*^	*^	*	*	*
*	*	*	*^	*	*	*
*xywh-#11:379,577,2362,679	*xywh-#11:379,577,2362,679	*xywh-#11:379,577,2362,679	*xywh-#11:379,577,2362,679	*xywh-#11:379,577,2362,679	*	*xywh-#11:379,577,2362,679	*
.	.	.	.	16qqb/LL	.	.	.
.	.	.	.	16qqcc/JJ	.	.	.
8DD/	8ryy	16b/LL	4d\	16b\LL	.	4.r	.
.	.	16a/	.	16a\	.	.	.
8D/L	4D\	16b/	.	16b\	.	.	.
.	.	16cc/J	.	16cc\J	.	.	.
8BJ 8G/	.	8b/J	8d\	8b\J	.	.	.
*v	*v	*	*	*	*	*	*
*	*v	*v	*v	*	*	*
=6	=6	=6	=6	=6
*	*^	*	*	*
*xywh-#11:379,577,2362,679	*xywh-#11:379,577,2362,679	*xywh-#11:379,577,2362,679	*	*xywh-#11:379,577,2362,679	*
.	16qqa/LL	.	.	.	.
.	16qqb/JJ	.	.	.	.
8DD/	16a/LL	4f#\ 4c\	.	4.ryy	.
.	16g#X/	.	.	.	.
8A\L 8F#\	16a/	.	.	.	.
.	16b/J	.	.	.	.
8D\J	8a/J	8f#\ 8c\	.	.	.
=7	=7	=7	=7	=7	=7
4GG/	8g/L	8gn\	.	4.ryy	.
.	8d/	4d\	.	.	.
8D/ 8GG/	8b/J	.	.	.	.
=8	=8	=8	=8	=8	=8
4G\ 4GG\	4g/	4B\	.	4.ryy	.
8r	8r	8ryy	.	.	.
*	*v	*v	*	*	*
!!LO:LB:g=original
=9	=9	=9	=9	=9
*xywh-#11:369,1294,2372,590	*xywh-#11:369,1294,2372,590	*xywh-#11:369,1294,2372,590	*xywh-#11:369,1294,2372,590	*xywh-#11:369,1294,2372,590
4G\ 4GG\	8r	.	16g/	Mi-
.	.	.	16g/	-ły
!	!	!LO:DY:rj	!	!
.	8g/L 8d/ 8B/	p	8.b/	w ci-
8r	8g/J 8d/ 8B/	.	.	.
.	.	.	16a/	-szy
=10	=10	=10	=10	=10
4G\ 4GG\	8r	.	16g/	szmer
.	.	.	16f#/	stru-
.	8g/L 8d/ 8B/	.	8g/	-my-
8r	8g/J 8d/ 8B/	.	8e/	-ka
=11	=11	=11	=11	=11
4G\ 4GG\	8r	.	16d/	po-
.	.	.	16g/	-wiew
.	8g/L 8d/ 8B/	.	8b\	wia-
8r	8g/J 8d/ 8B/	.	8dd\	-tru
=12	=12	=12	=12	=12
8G\ 8GG\	8g/ 8e/ 8c#X/	<	16cc#X\	tchną-
.	.	.	16ee\	-cy
!	!	!LO:DY:rj	!	!
4G\ 4GG\	4g/ 4d/ 4B/	[ sf	8dd\	ma-
.	.	.	8d/	-jem
=13	=13	=13	=13	=13
4G\ 4GG\	8r	.	16g/	mi-
.	.	.	16g/	-ły
!	!	!LO:DY:rj	!	!
.	8g/L 8d/ 8B/	p	8.b/	w ga-
8r	8g/J 8d/ 8B/	.	.	.
.	.	.	16a/	-ju
=14	=14	=14	=14	=14
4G\ 4GG\	8r	.	16g/	spiew
.	.	.	16f#/	sło-
.	8g/L 8d/ 8B/	.	8g/	-wi-
8r	8g/J 8d/ 8B/	.	8f#/	-ka
=15	=15	=15	=15	=15
4C/ 4CC/	8r	<	16e/	lub
.	.	.	16g/	sko-
.	8g/L 8e/ 8c/	.	8cc\	-wron-
8r	8g/J 8e/ 8c/	.	8ee\	-ka
!!LO:LB:g=original
=16	=16	=16	=16	=16
*xywh-#11:393,1885,2348,638	*xywh-#11:393,1885,2348,638	*xywh-#11:393,1885,2348,638	*xywh-#11:393,1885,2348,638	*xywh-#11:393,1885,2348,638
!	!	!LO:DY:rj	!	!
8C/ 8CC/	8f#/L 8d#X/ 8c/	sf	16dd#X\	po-
.	.	.	16ff#\	-nad
4C/ 4CC/	8g/ 8e/ 8c/	>	8ee\	ga-
.	8g/J 8e/ 8c/	]]	8ee\	-jem
=17	=17	=17	=17	=17
4.D/ 4.DD/	8r	.	8a/	lecz
!	!	!LO:DY:rj	!	!
.	8f#/L 8c/ 8A/	p	8.b/	słod-
.	8f#/J 8c/ 8A/	.	.	.
.	.	.	16a/	-sze
=18	=18	=18	=18	=18
4.D/ 4.DD/	8r	.	8f#/	to-
.	4f#/ 4c/ 4A/	.	4d/	-ny,
=19	=19	=19	=19	=19
4G\ 4GG\	8r	.	(16g/LL	mil-
.	.	.	16a/JJ)	.
.	8g/L 8d/ 8B/	.	8b/	-cze
8r	8g/J 8d/ 8B/	.	8cc/	u-
=20	=20	=20	=20	=20
8G\	8g/ 8d/ 8B/	.	8dd\	-czu-
!	!	!LO:DY:rj	!	!
4C/ 4CC/	4g/ 4e/ 4c/	sf	4ee\	-cie
=21	=21	=21	=21	=21
4.D/ 4.DD/	8r	.	16b\	w na-
.	.	.	16b\	-ro-
.	(8d/L 8B/	.	8.cc\	-do-
.	8g/J)	.	.	.
.	.	.	16b\	-wej,
=22	=22	=22	=22	=22
!	!LO:TX:b:t=Piu lento.	!	!LO:TX:a:t=Piu lento.	!
4.D/ 4.DD/	8r	.	8a/	pol-
.	(8c/L 8A/	.	8a/	-skiej
.	8f#/J)	.	8dd\	nu-
=23	=23	=23	=23	=23
(4.G\ (4.GG\	(8g/L 8B/	.	4g/	-cie.
.	8d/	.	.	.
.	8b/J	.	8r	.
=24	=24	=24	=24	=24
4GG/ 4GGG/))	4g/ 4B/)	.	4.r	.
8r	8r	.	.	.
!!LO:LB:g=original
=25!||!	=25!||!	=25!||!	=25!||!	=25!||!
*^	*	*	*	*
!	!	!LO:TX:t=P:problem=powtórka taktów 1-24	!	!	!
!LO:TX:t=P:problem=powtórka taktów 1-24	!	!LO:TX:a:t=Mazurek.	!	!	!
!	!	!	!LO:DY:rj	!	!
8DD/yy	8ryy	16.a/LLyy	sfyy	4.ryy	.
.	.	32a/JJkyy	.	.	.
8D/Lyy	4D\yy	8b/Lyy	.	.	.
8c/yyJ 8F#/	.	8a/Jyy	.	.	.
=26	=26	=26	=26	=26	=26
8A/Lyy	4D\yy	8f#/yy	.	4.ryy	.
8c/yy	.	4d/yy	.	.	.
8F#/Jyy	8ryy	.	.	.	.
*v	*v	*	*	*	*
=27	=27	=27	=27	=27
8GG/yy	16g\LLyy	.	4.ryy	.
.	16a\JJyy	.	.	.
8d\yyL 8B\yy	8b\Lyy	.	.	.
8G\Jyy	8cc\Jyy	.	.	.
=28	=28	=28	=28	=28
*	*^	*	*	*
8GG/yy	8ryy	8dd'\yy	.	4.ryy	.
!	!LO:TX:b:t=ten.	!	!	!	!
4c\yy 4G\yy 4C\yy	4ee/yy	4g\yy 4e\yy	.	.	.
*	*v	*v	*	*	*
=29	=29	=29	=29	=29
*^	*^	*	*	*
*	*	*	*^	*	*	*
.	.	.	.	16qqb/LLyy	.	.	.
.	.	.	.	16qqcc/JJyy	.	.	.
8DD/yy	8ryy	16b/LLyy	4d\yy	16b\LLyy	.	4.ryy	.
.	.	16a/yy	.	16a\yy	.	.	.
8D/Lyy	4D\yy	16b/yy	.	16b\yy	.	.	.
.	.	16cc/Jyy	.	16cc\Jyy	.	.	.
8B/yyJ 8G/	.	8b/Jyy	8d\yy	8b\Jyy	.	.	.
*v	*v	*	*	*	*	*	*
*	*v	*v	*v	*	*	*
=30	=30	=30	=30	=30
*	*^	*	*	*
.	16qqa/LLyy	.	.	.	.
.	16qqb/JJyy	.	.	.	.
8DD/yy	16a/LLyy	4f#\yy 4c\yy	.	4.ryy	.
.	16g#X/yy	.	.	.	.
8A\yyL 8F#\	16a/yy	.	.	.	.
.	16b/Jyy	.	.	.	.
8D\Jyy	8a/Jyy	8f#\yy 8c\yy	.	.	.
=31	=31	=31	=31	=31	=31
4GG/yy	8g/Lyy	8gn\yy	.	4.ryy	.
.	8d/yy	4d\yy	.	.	.
8D/yy 8GG/yy	8b/Jyy	.	.	.	.
=32	=32	=32	=32	=32	=32
4G\yy 4GG\yy	4g/yy	4B\yy	.	4.ryy	.
8ryy	8ryy	8ryy	.	.	.
*	*v	*v	*	*	*
!!LO:LB:g=original
=33	=33	=33	=33	=33
4G\yy 4GG\yy	8ryy	.	16g/	Ser-
.	.	.	16g/	-cu
!	!	!LO:DY:rj	!	!
.	8g/yyL 8d/yyyy 8B/yy	pyy	8.b/	mat-
8ryy	8g/yyJ 8d/yy 8B/yy	.	.	.
.	.	.	16a/	-ki
=34	=34	=34	=34	=34
4G\yy 4GG\yy	8ryy	.	16g/	dr-
.	.	.	16f#/	-ga
.	8g/yyL 8d/yy 8B/yy	.	8g/	wzmian-
8ryy	8g/yyJ 8d/yy 8B/yy	.	8e/	-ka
=35	=35	=35	=35	=35
4G\yy 4GG\yy	8ryy	.	16d/	Głos
.	.	.	16g/	dzie-
.	8g/yyL 8d/ 8B/	.	8b\	-cię-
8ryy	8g/yyJ 8d/ 8B/	.	8dd\	-cia
=36	=36	=36	=36	=36
8G\yy 8GG\yy	8g/yy 8e/yy 8c#X/yy	<yy	16cc#X\	w pier-
.	.	.	16ee\	-wszem
!	!	!LO:DY:rj	!	!
4G\yy 4GG\yy	4g/yy 4d/yy 4B/yy	[ sfyyyy	8dd\	sło-
.	.	.	8d/	-wie,
=37	=37	=37	=37	=37
4G\yy 4GG\yy	8ryy	.	16g/	Mi-
.	.	.	16g/	-łe
!	!	!LO:DY:rj	!	!
.	8g/yyL 8d/yy 8B/yy	pyy	8.b/	dzwię-
8ryy	8g/yyJ 8dyy/ 8B/yy	.	.	.
.	.	.	16a/	-ki
=38	=38	=38	=38	=38
4G\yy 4GG\yy	8ryy	.	16g/	dla
.	.	.	16f#/	ko-
.	8g/yyL 8d/yy 8B/yy	.	8g/	-chan-
8ryy	8g/yyJ 8d/yy 8B/yy	.	8f#/	-ka
=39	=39	=39	=39	=39
4C/yy 4CC/yy	8ryy	<	16e/	Gdy
.	.	.	16g/	mu
.	8g/yyL 8e/ 8c/	.	8cc\	Lu-
8ryy	8g/yyJ 8e/ 8c/	.	8ee\	-ba
!!LO:LB:g=original
=40	=40	=40	=40	=40
!	!	!LO:DY:rj	!	!
8C/yy 8CC/yy	8f#/yyL 8d#X/ 8c/	sfyy	16dd#X\	ko-
.	.	.	16ff#\	-cham
4C/yy 4CC/yy	8g/yy 8e/ 8c/	>yy	8ee\	po-
.	8g/yyJ 8e/ 8c/	]]	8ee\	-wie
=41	=41	=41	=41	=41
4.D/yy 4.DD/yy	8ryy	.	8a/	Lecz
!	!	!LO:DY:rj	!	!
.	8f#/yyL 8c/yy 8A/yy	pyy	8.b/	słod-
.	8f#/yyJ 8c/yy 8A/yy	.	.	.
.	.	.	16a/	-sze
=42	=42	=42	=42	=42
4.D/yy 4.DD/yy	8ryy	.	8f#/	to-
.	4f#/yy 4c/yy 4A/yy	.	4d/	-ny,
=43	=43	=43	=43	=43
4G\yy 4GG\yy	8ryy	.	(yy16g/LL	mil-
.	.	.	16a/JJ)	.
.	8g/yyL 8d/ 8B/	.	8b/	-sze
8ryy	8g/yyJ 8d/ 8B/	.	8cc/	u-
=44	=44	=44	=44	=44
8G\yy	8g/yy 8d/yy 8B/yy	.	8dd\	-czu-
!	!	!LO:DY:rj	!	!
4C/yy 4CC/yy	4g/yy 4e/yy 4c/yy	sfyy	4ee\	-cie
=45	=45	=45	=45	=45
4.D/yy 4.DD/yy	8ryy	.	16b\	W na-
.	.	.	16b\	-ro-
.	(yy8d/yyL yy8B/	.	8.cc\	-do-
.	8g/J)yy	.	.	.
.	.	.	16b\	-wej,
=46	=46	=46	=46	=46
!	!LO:TX:b:t=Piu lento.	!	!LO:TX:a:t=Piu lento.	!
4.D/yy 4.DD/yy	8ryy	.	8a/	pol-
.	(yy8c/yyL yy8A/	.	8a/	-skiej
.	8f#/J)yy	.	8dd\	nu-
=47	=47	=47	=47	=47
(yy4.G\yy (yy4.GG\yy	(yy8g/yyL yy8B/	.	4g/	-cie.
.	8d/yy	.	.	.
.	8b/Jyy	.	8r	.
=48	=48	=48	=48	=48
4GG/yy 4GGG/))yy	4g/yy 4B/)yy	.	4.r	.
8ryy	8ryy	.	.	.
!!LO:LB:g=original
=49!||!	=49!||!	=49!||!	=49!||!	=49!||!
*^	*	*	*	*
!	!	!LO:TX:t=P:problem=powtórka taktów 1-24	!	!	!
!	!	!LO:TX:a:t=Mazurek.	!	!	!
!	!	!	!LO:DY:rj	!	!
8DD/yy	8ryy	16.a/LLyy	sfyy	4.ryy	.
.	.	32a/JJkyy	.	.	.
8D/Lyy	4D\yy	8b/Lyy	.	.	.
8c/yyJ 8F#/	.	8a/Jyy	.	.	.
=50	=50	=50	=50	=50	=50
8A/Lyy	4D\yy	8f#/yy	.	4.ryy	.
8c/yy	.	4d/yy	.	.	.
8F#/Jyy	8ryy	.	.	.	.
*v	*v	*	*	*	*
=51	=51	=51	=51	=51
8GG/yy	16g\LLyy	.	4.ryy	.
.	16a\JJyy	.	.	.
8d\yyL 8B\	8b\Lyy	.	.	.
8G\Jyy	8cc\Jyy	.	.	.
=52	=52	=52	=52	=52
*	*^	*	*	*
8GG/yy	8ryy	8dd'\yy	.	4.ryy	.
!	!LO:TX:b:t=ten.	!	!	!	!
4c\yy 4G\yy 4C\yy	4ee/yy	4g\yy 4e\yy	.	.	.
*	*v	*v	*	*	*
=53	=53	=53	=53	=53
*^	*^	*	*	*
*	*	*	*^	*	*	*
.	.	.	.	16qqb/LLyy	.	.	.
.	.	.	.	16qqcc/JJyy	.	.	.
8DD/yy	8ryy	16b/LLyy	4d\yy	16b\LLyy	.	4.ryy	.
.	.	16a/yy	.	16a\yy	.	.	.
8D/Lyy	4D\yy	16b/yy	.	16b\yy	.	.	.
.	.	16cc/Jyy	.	16cc\Jyy	.	.	.
8B/yyJ 8G/	.	8b/Jyy	8d\yy	8b\Jyy	.	.	.
*v	*v	*	*	*	*	*	*
*	*v	*v	*v	*	*	*
=54	=54	=54	=54	=54
*	*^	*	*	*
.	16qqa/LLyy	.	.	.	.
.	16qqb/JJyy	.	.	.	.
8DD/yy	16a/LLyy	4f#\yy 4c\yy	.	4.ryy	.
.	16g#X/yy	.	.	.	.
8A\yyL 8F#\	16a/yy	.	.	.	.
.	16b/Jyy	.	.	.	.
8D\Jyy	8a/Jyy	8f#\yy 8c\yy	.	.	.
=55	=55	=55	=55	=55	=55
4GG/yy	8g/Lyy	8gn\yy	.	4.ryy	.
.	8d/yy	4d\yy	.	.	.
8D/yy 8GG/yy	8b/Jyy	.	.	.	.
=56	=56	=56	=56	=56	=56
4G\yy 4GG\yy	4g/yy	4B\yy	.	4.ryy	.
8ryy	8ryy	8ryy	.	.	.
*	*v	*v	*	*	*
!!LO:LB:g=original
=57	=57	=57	=57	=57
4G\yy 4GG\yy	8ryy	.	16g/	Wróg
.	.	.	16g/	nam
!	!	!LO:DY:rj	!	!
.	8g/yyL 8d/ 8B/	pyy	8.b/	wy-
8ryy	8g/yyJ 8d/ 8B/	.	.	.
.	.	.	16a/	-darł
=58	=58	=58	=58	=58
4G\yy 4GG\yy	8ryy	.	16g/	kraj
.	.	.	16f#/	nasz
.	8g/yyL 8d/ 8B/	.	8g/	ca-
8ryy	8g/yyJ 8d/ 8B/	.	8e/	-ły
=59	=59	=59	=59	=59
4G\yy 4GG\yy	8ryy	.	16d/	O-
.	.	.	16g/	-dział
.	8g/yyL 8d/yy 8B/yy	.	8b\	Pol-
8ryy	8g/yyJ 8d/yy 8B/yy	.	8dd\	-skę
=60	=60	=60	=60	=60
8G\yy 8GG\yy	8g/yy 8e/yy 8c#X/yy	<yy	16cc#X\	w kir
.	.	.	16ee\	gro-
!	!	!LO:DY:rj	!	!
4G\yy 4GG\yy	4g/yy 4d/yy 4B/yy	[ sfyy	8dd\	-bo-
.	.	.	8d/	-wy,
=61	=61	=61	=61	=61
4G\yy 4GG\yy	8ryy	.	16g/	Lecz
.	.	.	16g/	nie
!	!	!LO:DY:rj	!	!
.	8g/yyL 8d/ 8B/	pyy	8.b/	wy-
8ryy	8g/yyJ 8d/ 8B/	.	.	.
.	.	.	16a/	-darł
=62	=62	=62	=62	=62
4G\yy 4GG\yy	8ryy	.	16g/	na-
.	.	.	16f#/	-szej
.	8g/yyL 8d/ 8B/	.	8g/	chwa-
8ryy	8g/yyJ 8d/ 8B/	.	8f#/	-ły
=63	=63	=63	=63	=63
4C/yy 4CC/yy	8ryy	<yy	16e/	A-
.	.	.	16g/	-ni
.	8g/yyL 8e/ 8c/	.	8cc\	nu-
8ryy	8g/yyJ 8e/ 8c/	.	8ee\	-ty
!!LO:LB:g=original
=64	=64	=64	=64	=64
!	!	!LO:DY:rj	!	!
8C/yy 8CC/yy	8f#/yyL 8d#X/ 8c/	sfyy	16dd#X\	na-
.	.	.	16ff#\	-ro-
4C/yy 4CC/yy	8g/yy 8e/ 8c/	>yy	8ee\	-do-
.	8g/yyJ 8e/ 8c/	]]	8ee\	-wej
=65	=65	=65	=65	=65
4.D/yy 4.DD/yy	8ryy	.	8a/	A
!	!	!LO:DY:rj	!	!
.	8f#/yyL 8c/ 8A/	pyy	8.b/	słod-
.	8f#/yyJ 8c/ 8A/	.	.	.
.	.	.	16a/	-kie
=66	=66	=66	=66	=66
4.D/yy 4.DD/yy	8ryy	.	8f#/	to-
.	4f#/yy 4c/yy 4A/yy	.	4d/	-ny,
=67	=67	=67	=67	=67
4G\yy 4GG\yy	8ryy	.	(yy16g/LL	mi-
.	.	.	16a/JJ)	.
.	8g/yyL 8d/yy 8B/yy	.	8b/	-łe
8ryy	8g/yyJ 8d/yy 8B/yy	.	8cc/	u-
=68	=68	=68	=68	=68
8G\yy	8g/yy 8d/yy 8B/yy	.	8dd\	-czu-
!	!	!LO:DY:rj	!	!
4C/yy 4CC/yy	4g/yy 4e/yy 4c/yy	sfyy	4ee\	-cie
=69	=69	=69	=69	=69
4.D/yy 4.DD/yy	8ryy	.	16b\	W na-
.	.	.	16b\	-ro-
.	(yy8d/yyL yy8B/yy	.	8.cc\	-do-
.	8g/J)yy	.	.	.
.	.	.	16b\	-wej,
=70	=70	=70	=70	=70
!	!LO:TX:b:t=Piu lento.	!	!LO:TX:a:t=Piu lento.	!
4.D/yy 4.DD/yy	8ryy	.	8a/	pol-
.	(yy8c/yyL yy8A/	.	8a/	-skiej
.	8f#/J)yy	.	8dd\	nu-
=71	=71	=71	=71	=71
(yy4.G\yy (yy4.GG\yy	(yy8g/yyL yy8B/yy	.	4g/	-cie.
.	8d/yy	.	.	.
.	8b/Jyy	.	8r	.
=72	=72	=72	=72	=72
4GG/yy 4GGG/))yy	4g/yy 4B/)yy	.	4.r	.
8ryy	8ryy	.	.	.
!!LO:LB:g=original
=73!||!	=73!||!	=73!||!	=73!||!	=73!||!
*^	*	*	*	*
!	!	!LO:TX:t=P:problem=powtórka taktów 1-24	!	!	!
!LO:TX:t=P:problem=powtórka taktów 1-24	!	!LO:TX:a:t=Mazurek.	!	!	!
!	!	!	!LO:DY:rj	!	!
8DD/yy	8ryy	16.a/LLyy	sfyy	4.ryy	.
.	.	32a/JJkyy	.	.	.
8D/Lyy	4D\yy	8b/Lyy	.	.	.
8c/yyJ 8F#/	.	8a/Jyy	.	.	.
=74	=74	=74	=74	=74	=74
8A/Lyy	4D\yy	8f#/yy	.	4.ryy	.
8c/yy	.	4d/yy	.	.	.
8F#/Jyy	8ryy	.	.	.	.
*v	*v	*	*	*	*
=75	=75	=75	=75	=75
8GG/yy	16g\LLyy	.	4.ryy	.
.	16a\JJyy	.	.	.
8d\yyL 8B\	8b\Lyy	.	.	.
8G\Jyy	8cc\Jyy	.	.	.
=76	=76	=76	=76	=76
*	*^	*	*	*
8GG/yy	8ryy	8dd'\yy	.	4.ryy	.
!	!LO:TX:b:t=ten.	!	!	!	!
4c\yy 4G\yy 4C\yy	4ee/yy	4g\yy 4e\yy	.	.	.
*	*v	*v	*	*	*
=77	=77	=77	=77	=77
*^	*^	*	*	*
*	*	*	*^	*	*	*
.	.	.	.	16qqb/LLyy	.	.	.
.	.	.	.	16qqcc/JJyy	.	.	.
8DD/yy	8ryy	16b/LLyy	4d\yy	16b\LLyy	.	4.ryy	.
.	.	16a/yy	.	16a\yy	.	.	.
8D/Lyy	4D\yy	16b/yy	.	16b\yy	.	.	.
.	.	16cc/Jyy	.	16cc\Jyy	.	.	.
8B/yyJ 8G/	.	8b/Jyy	8d\yy	8b\Jyy	.	.	.
*v	*v	*	*	*	*	*	*
*	*v	*v	*v	*	*	*
=78	=78	=78	=78	=78
*	*^	*	*	*
.	16qqa/LLyy	.	.	.	.
.	16qqb/JJyy	.	.	.	.
8DD/yy	16a/LLyy	4f#\yy 4c\yy	.	4.ryy	.
.	16g#X/yy	.	.	.	.
8A\yyL 8F#\yy	16a/yy	.	.	.	.
.	16b/Jyy	.	.	.	.
8D\Jyy	8a/Jyy	8f#\yy 8c\yy	.	.	.
=79	=79	=79	=79	=79	=79
4GG/yy	8g/Lyy	8gn\yy	.	4.ryy	.
.	8d/yy	4d\yy	.	.	.
8D/yy 8GG/yy	8b/Jyy	.	.	.	.
=80	=80	=80	=80	=80	=80
4G\yy 4GG\yy	4g/yy	4B\yy	.	4.ryy	.
8ryy	8ryy	8ryy	.	.	.
*	*v	*v	*	*	*
!!LO:LB:g=original
=81	=81	=81	=81	=81
4G\yy 4GG\yy	8ryy	.	16g/	Więc
.	.	.	16g/	śpie-
!	!	!LO:DY:rj	!	!
.	8g/yyL 8d/yy 8B/yy	pyy	8.b/	-waj-
8ryy	8g/yyJ 8dyy/ 8B/yy	.	.	.
.	.	.	16a/	-my
=82	=82	=82	=82	=82
4G\yy 4GG\yy	8ryy	.	16g/	pie-
.	.	.	16f#/	-śni
.	8g/yyL 8d/ 8B/	.	8g/	na-
8ryy	8g/yyJ 8d/ 8B/	.	8e/	-sze
=83	=83	=83	=83	=83
4G\yy 4GG\yy	8ryy	.	16d/	Nim
.	.	.	16g/	nad-
.	8g/yyL 8d/ 8B/	.	8b\	-pły-
8ryy	8g/yyJ 8d/ 8B/	.	8dd\	-nie
=84	=84	=84	=84	=84
8G\yy 8GG\yy	8g/yy 8e/yy 8c#X/yy	<yy	16cc#X\	kres
.	.	.	16ee\	błą-
!	!	!LO:DY:rj	!	!
4G\yy 4GG\yy	4g/yy 4d/yy 4B/yy	[ sfyy	8dd\	-ka-
.	.	.	8d/	-nia,
=85	=85	=85	=85	=85
4G\yy 4GG\yy	8ryy	.	16g/	Wten-
.	.	.	16g/	-czas
!	!	!LO:DY:rj	!	!
.	8g/yyL 8d/yy 8B/yy	pyy	8.b/	bi-
8ryy	8g/yyJ 8d/yy 8B/yy	.	.	.
.	.	.	16a/	-jąc
=86	=86	=86	=86	=86
4G\yy 4GG\yy	8ryy	.	16g/	takt
.	.	.	16f#/	w pa-
.	8g/yyL 8d/ 8B/	.	8g/	-ła-
8ryy	8g/yyJ 8d/ 8B/	.	8f#/	-sze
=87	=87	=87	=87	=87
4C/yy 4CC/yy	8ryy	<yy	16e/	Za-
.	.	.	16g/	-brzmim
.	8g/yyL 8e/yy 8c/yy	.	8cc\	hym-
8ryy	8g/yyJ 8e/yy 8c/yy	.	8ee\	-ny
!!LO:LB:g=original
=88	=88	=88	=88	=88
!	!	!LO:DY:rj	!	!
8C/yy 8CC/yy	8f#/yyL 8d#X/ 8c/yy	sfyy	16dd#X\	zmar-
.	.	.	16ff#\	-twych-
4C/yy 4CC/yy	8g/yy 8e/ 8c/	>	8ee\	-wsta-
.	8g/yyJ 8e/yy 8c/yy	]]	8ee\	-nia
=89	=89	=89	=89	=89
4.D/yy 4.DD/yy	8ryy	.	8a/	Bo
!	!	!LO:DY:rj	!	!
.	8f#/yyL 8c/yy 8A/yy	pyy	8.b/	słod-
.	8f#/yyJ 8c/yy 8A/yy	.	.	.
.	.	.	16a/	-kie
=90	=90	=90	=90	=90
4.D/yy 4.DD/yy	8ryy	.	8f#/	to-
.	4f#/yy 4c/yy 4A/yy	.	4d/	-ny,
=91	=91	=91	=91	=91
4G\yy 4GG\yy	8ryy	.	(yy16g/LL	mi-
.	.	.	16a/JJ)	.
.	8g/yyL 8d/yy 8B/yy	.	8b/	-łe
8ryy	8g/yyJ 8d/yy 8B/yy	.	8cc/	u-
=92	=92	=92	=92	=92
8G\yy	8g/yy 8d/yy 8B/yy	.	8dd\	-czu-
!	!	!LO:DY:rj	!	!
4C/yy 4CC/yy	4g/yy 4eyy/ 4c/yy	sfyy	4ee\	-cie
=93	=93	=93	=93	=93
4.D/yy 4.DD/yy	8ryy	.	16b\	W na-
.	.	.	16b\	-ro-
.	(yy8d/yyL yy8B/yy	.	8.cc\	-do-
.	8g/J)yy	.	.	.
.	.	.	16b\	-wej,
=94	=94	=94	=94	=94
!	!LO:TX:b:t=Piu lento.	!	!LO:TX:a:t=Piu lento.	!
4.D/yy 4.DD/yy	8ryy	.	8a/	pol-
.	(yy8c/yyL yy8A/yy	.	8a/	-skiej
.	8f#/J)yy	.	8dd\	nu-
=95	=95	=95	=95	=95
(yy4.G\yy (yy4.GG\yy	(yy8g/yyL 8B/yy	.	4g/	-cie.
.	8d/yy	.	.	.
.	8b/Jyy	.	8r	.
=96	=96	=96	=96	=96
4GG/yy 4GGG/))yy	4g/yy 4B/)yy	.	4.r	.
8ryy	8ryy	.	.	.
==	==	==	==	==
*-	*-	*-	*-	*-
!!!system-decoration: s1{(s2,s3)}
!!!RDF**dynam: < = Cres:
!!!ENC: Andrzej Gręziak
!!!END: 2022-02-11
!!!ENC: Leszek Kubiak
!!!END: 2022-02-17
!!!YEC: Copyright 2022 Narodowy Instytut Fryderyka Chopina (https://polishscores.org)
!!!YEM: License CC-BY-4.0 (https://creativecommons.org/licenses/by/4.0)
!!!IIIF: https://polona.pl/iiif/item/NzE0MjM5Nzc/manifest.json
!!!ENC-iiif: Magdalena Agnieszka Krok
!!!END-iiif: 2022-10-05
